X:227
T:St.Anne's
S:Brcher
M:4/4
D:Frankie Gavin
L:1/8
R:reel
K:D
de | fedf edcB | A2 FA DAFA | ~B2 GB EBGB | A2 FA DAFA |
fedf edcB | A2 FA DAFA | ~B2 ed cABc | dedc ~d2 ||
de | f2 fe fdef | gagf ~g2 gf | edcB ABce | baa^g ~a2 ag |
f2 fe fdef | gagf ~g2 gf | edcB ABcd | eddc ~d2 ||
